X:1
T:A Major Oliver Brownson, 1797
T:Isaac Watts, 1719 (Psalm 113, Part 1)     88. 88. 88. 
T:Ontario
T:Transcribed from  A New Collection of Sacred Harmony, 1797.
%%score [ 1 2 3 4 ]
L:1/8
Q:1/4=80
M:2/4
K:A
V:1 treble nm="Tr\nI" snm="Tr\nI"
V:2 treble nm="Tr\nII" snm="Tr\nII"
V:3 treble-8 nm="T" snm="T"
V:4 bass nm="B" snm="B"
V:1
 A4 | E2 E2 | EF GA | A2 B2 | c4- | c2 B2 | c2 c2 | c3 d | cB A2 | G4 | z2 B2 | e2 e2 | c2 de | %13
w: 1.~Ye|that de-|light * to *|serve the|Lord,~|_ The|ho- nors|of his|name * re-|cord,|His|sa- cred|name for- *|
 f2 f2 | d2 B2 | e>d e>f | e2 f2 | d2 d2 | e4 | z2 E2 | B2 B2 | G2 FE | AF ED | E4 | z2 c2 | %25
w: ev- er|bless; Where-|e'er * the *|cir- cling|sun dis-|plays|His|ri- sing|beams, or *|set- * ting *|rays,|Let|
 A2 A2 | (A2 F)A | B2 B2 | B4- | B2 B2 | cA dB | (A c2) B | A2 G2 | A4 |] %34
w: lands and|seas * his|power con-|fess,|* Let|lands * and *|seas * his|power con-|fess.|
V:2
 E4 | A2 A2 | c2 d2 | c2 B2 | (A2 G2- | G2) E2 | E2 A2 | F3 E | FG A2 | B4 | z2 B2 | A2 G2 | %12
w: 2.~Nor|time, nor|na- ture's|nar- row|rounds,~ _|_ Can|give his|vast do-|mi- * nion|bounds;|The|heav'ns are|
 A2 A2 | dc BA | G2 G2 | A2 A2 | c2 A/B/c | B2 B2 | B4 | z2 B2 | B2 B>c | B2 A2 | cd ef | e4 | %24
w: far be-|low * his *|height: Let|no cre-|a- ted * *|great- ness|dare|With|our e- *|ter- nal|God * com- *|pare,|
 z2 A2 | c2 BA | d3 c | BA GF | E4- | E2 EC | E2 E2 | A3 B | c2 dc/B/ | c4 |] %34
w: Armed|with his *|un- cre-|a- * ted *|might,~|_ Armed *|with his|un- cre-|a- ted * *|might.|
V:3
 A4 | c2 c2 | c2 BA | BA GF | E4- | E2 E2 | A>G AB | A3 G | AB cd | e4 | z2 e2 | c2 BA | A>G AF | %13
w: 3.~He|bows his|glo- rious *|head * to *|view~|_ What|the * bright *|hosts of|an- * gels *|do,|And|bends his *|care * to *|
 B2 B>c | B2 G/A/B | A2 A2 | A2 cB/A/ | G2 F2 | E4 | z2 B2 | B2 G>A | B2 c2 | c2 A>B | c4 | z2 e2 | %25
w: mor- tal *|things; His * *|sove- reign|hand ex- * *|alts the|poor,|He|takes the *|nee- dy|from the *|door,|And|
 dc de | f3 e | e2 ^d2 | e4- | e2 E2 | A/B/c B/c/d | (c e2) d | c2 B2 | A4 |] %34
w: makes * them *|com- pa-|ny for|kings,~|_ And|makes * * them * *|com- * pa-|ny for|kings.|
V:4
 A,4 | A,2 A,2 | A,2 G,F, | E,F, E,D, | C,4- | C,2 E,2 | C,2 A,,2 | A,3 B, | A,G, F,2 | E,4 | %10
w: 4.~When|child- less|fam- i- *|lies * des- *|pair,~|_ He|sends the|bles- sing|of * an|heir,|
 z2 E,2 | A,2 E,2 | F,>E, D,C, | B,,2 B,,2 | B,,2 E,2 | C,2 A,,2 | A,2 F,/G,/A, | B,2 B,,2 | E,4 | %19
w: To|res- cue|their * ex- *|pi- ring|name: The|mo- ther,|with a * *|thank- ful|voice,|
 z2 E,2 | E,2 E,2 | E,2 C,A,, | A,2 A,2 | A,4 | z2 A,2 | F,E, D,C, | D,3 F, | E,2 B,,2 | E,4- | %29
w: Pro-|claims his|prai- ses *|and her|joys:|Let|eve- * ry *|age ad-|vance his|fame,~|
 E,2 E,2 | A,2 G,2 | A,3 D, | E,2 E,2 | A,,4 |] %34
w: _ Let|eve- ry|age ad-|vance his|fame.|

